X:12155
T:O'Casey's Jig
S:learned from Tony Gordon
M:6/8
I:speed 250
K:G
AB |: c3 B3 | AGA BGE | DEG AGA |BdB  A2B |
c3 B3 | AGA BGE | DEG AGA |[1 BGF G2B :|[2 BGF G3 |
|:GBd g3 | ede gdB | GBd g3 | AGA BGE |
 GBd g3 |  ede gdB | GAB AGA | BGF G3 :|
